X:105
T: Mary Brennan's Favorite
T: Rogha Mh\'aire N\'i Bhraon\'ain
S: "Ceol Rince na hEireann" 1/55
Z: B.Black
L: 1/8
M: 6/8
R: jig
K: G
G2E D3|E2F G2B|A2G E2F|G2B d2c|
B2D D3|E2F G2B|A2G E2F|1 G3 G3 :|2 G3 G2||
A|B3 B2A|B2c dcB|A3 A2G|A2B c2A|
B3 B2A|B2c d2B|A2G E2F|G3 G2 :|
